X:1
T:G minor Oliver Holden, 1803
T:William Cowper, 1779 88. 88. (L. M.)
T:Olney No copyright. Treble-Tenor-Bass from The Charlestown Collection , 1803; Counter by B. C. Johnston, 2015..
%%score [ 1 2 3 4 ]
L:1/8
M:4/4
K:Bb
V:1 treble nm="Treble" snm="Tr."
V:2 treble nm="Counter" snm="C."
V:3 treble-8 nm="Tenor" snm="T."
V:4 bass nm="Bass" snm="B."
V:1
 G4 B2 B2 | G>A B2 d2 d2 | d4 d4 | f2 d2 G2 G2 | ^F4 G4 | A6 z2 | z8 | z4 z2 B2 | c2 c2 d2 d2 | %9
w: |||||||But|ov- er- flow and|
 d2 d2 d2 d2 | e2 dc (dcBA | B3 A G2) A2 | B2 B2 G2 A2 | B2 B2 cB AG | d6 d2 | d8 |] %16
w: pour me down, *|||||||
V:2
 B4 G2 G2 | D2 G2 G2 ^F2 | G4 ^F4 | B2 G2 E2 G2 | D4 D4 | ^F6 z2 | z8 | z8 | z4 z2 B2 | %9
w: 1.~Dear foun- tain|of de- light un-|known, No|lon- ger sink be-|neath the|brim,|||But|
 A2 A2 A2 G2 | ^F2 GA (GABA | G6) ^F2 | D2 D2 D2 E2 | D2 E2 EF EG | A6 D2 | D8 |] %16
w: ov- er- flow, But|ov- er- * flow~ _ _ _|_ and|pour me down, A|li- ving and * life- *|gi- ving|stream.|
V:3
 d4 G2 G2 | B2 d>c B2 A2 | G4 A4 | B2 G2 c2 B2 | A4 G4 | ^F6 z2 | z4 z2 B2 | c2 c2 d2 d2 | c4 B4 | %9
w: ||||||But|ov- er- flow and|pour me|
 A6 B2 | c2 BA (GABc | d6) d2 | f2 d2 B2 c2 | d2 G2 ed cB | A6 A2 | G8 |] %16
w: down, *|||||||
V:4
 G,4 G,2 G,2 | G,2 B,>A, G,2 D,2 | G,4 D,4 | B,,2 B,,2 C,2 C,2 | D,4 G,4 | D,6 D,2 | %6
w: |||||* 1.~But|
 F,2 F,2 B,2 B,2 | F,2 F,2 B,,2 B,,2 | F,2 F,2 D,2 B,,2 | D,2 D,2 D,2 G,2 | ^F,2 G,A, (B,3 A, | %11
w: ov- er- flow and|pour me down, But|ov- er- flow and|pour me down, *||
 G,6) D,2 | B,,2 B,,2 D,2 C,2 | B,,2 E,2 C,2 C,2 | D,6 D,2 | G,,8 |] %16
w: |||||

